X:611
T: VON DIR GESCHIEDEN
N: E0567
O: Europa, Mitteleuropa, Deutschland
R: Liebes - Lied, Trost
M: 4/4
L: 1/8
K: F
CFA | c2c2zcfg | f2e2z
BBA | Gee2zdcB | A4z
Ffe | e2d2zdfd | c4z
cBA | Gdd2zdcB | A4z
Ffe | e2d2zdfd | c4z
cBA | Gdd2zdcB | A4z

@@@ Tune index: 4261
